X:2984
T:Oidche mhath leibh
C:anon.
O:Scotland
Z:Transcribed by Frank Nordberg - http://www.musicaviva.com
F:http://abc.musicaviva.com/tunes/scotland/oidche-mhath-leibh.abc
M:3/4
L:1/4
Q:1/4=118
K:Em
e>fe|B3|d>ef|d3|
e>dB|b3|afd|e3|
e/g/-g2|B3|g>fe|f<dz|
e>dB|b3|afd|e3|
g2a|b2b|d'2a|b/e/-e2-|
ega|b2b/b/|b>ag|f3|
f/b/-b2|e3|f/g/-ge|d3|
^c/d/de|f/b/-b2|afd|e3|]
W:
W:
W:  From Musica Viva - http://www.musicaviva.com
W:  the Internet center for free sheet music downloads.
